X:5915
T:Gan ainm
R:Reel
S:(John & James Kelly)
H:
N:
D:Milltown Fiddle Recital
Z:Adrian Scahill
M:4/4
L:1/8
K:D
d3A BAFB|AFBF AFEF|D2FA BAFB|ABde fgfe|\
d3A BAFB|AFBF AFEF|D2FA BAFB|ABde fgfe:||\
dDD2 FDFA|dcde fdef|g3e f3d|edef edBc|\
dDD2 FDFA|dcde fdef|g3e f3d|eABc d4:||


